X: 1
T: reel de R\'emi
R: reel
M: C|
K: D
|: AG \
| "D"FD-DD "D7/F#"DFA=c | "G"BG-GF  "Em"G2ed | "A7"cA-AA Aceg | "D"fdAd fd"A7"AG |
| "D"FD-DD "D7/F#"DFA=c | "G"BG-GF  "Em"G2ed | "A7"cA-AA Aceg | fdec "D"d2 :|
|: ef\
| "G"g2gf g2b2 | "D"abaf "Bm"d2a2 | "Em"gece "A7"Acec | "D"dcde fdef |
| "G"g2gf g2b2 | "D"abaf "Bm"dfaf | "Em"gece "A7"Aceg | fdec "D"d2 :|
